X:1
T:Pavane en forme de complainte
T:Pavane en forme de complainte
T:Pavane en forme de complainte
T:Nicolas Vallet
C:Nicolas Vallet
L:1/8
Q:1/8=80
M:4/4
K:C
V:1 tab stafflines=6 strings=C2,D2,E2,F2,G2,C3,F3,A3,D4,G4 nostems nm="Lute" snm="Lt."
V:1
"^, 8th sting = E" !4!A,4 !3!C2 !2!D2 | [!4!A,!2!E]2 !2!F2 [!4!G,!1!G]2 !2!E2 | %2
 [!4!F,!3!C!1!A]2 !2!D2 [!5!E,!1!G]2 !tenuto!!3!B, !tenuto!!3!C | %3
 [!5!D,!3!A,!2!F]2 !3!B,2 [!4!A,!3!C!2!E]2 !5!E, !3!B, | %4
 [!4!F,!3!A,!2!E]2 !2!D2 [!5!E,!4!A,!2!E]2 !4!^G,2 | %5
 [!6!A,,!4!A,!2!E!1!A]2 !1!B2 !1!c2 !tenuto![!3!B,!1!B] !tenuto!!1!A | %6
 [!3!C!1!G]2 !2!E2 !1!A2 [!3!B,!2!D!1!G]2 | [!4!A,!3!C!2!^F]2 !2!E !2!F !2!E2 [!4!G,!3!B,]2 | %8
 [!4!^F,!3!A,]2 !2!E2 !2!_E2 !3!B,2 | [!5!E,!3!C!2!E]2 !4!A,2 !3!B,2 ([!4!^G,!1!B]2 | %10
 [!4!A,!2!E!1!c]2 [!2!^F!1!A]2 [!4!G,!2!D!1!B]2 [!2!E!1!G]2) | %11
 [!2!F!1!A]2 [!3!B,!2!D!1!G] !2!F [!3!C!2!E]2 !5!E, !3!B, | %12
 [!4!F,!3!A,]2 !5!D,2 [!5!E,!4!^G,]2 [!5!^C,!2!E]2 | %13
 [!5!D,!2!F]2 [!6!B,,!3!B,!2!D]2 [!6!A,,!3!C!2!F]2 !2!E2 | %14
 [!6!B,,!4!G,] !2!D !1!G2 [!5!C,!3!C] !2!E !1!A2 | %15
 [!5!D,!3!A,!2!F]2 [!3!B,!1!B]2 [!5!E,!3!C!2!E]2 !3!B,2 | %16
 [!4!F,!3!A,!2!E!1!A]2 !2!D !3!C [!4!G,!3!C!2!D!1!G]2 !3!B, !4!F, | %17
 [!5!E,!3!C!1!G]2 !5!C,2 [!4!F,!3!C!1!A]2 [!5!D,!2!D!1!B]2 | %18
 [!5!E,!4!^G,!3!B,]2 [!4!A,!3!C!2!E!1!A]2 [!8!E,,!3!B,]2 !1!^G2 | %19
 !arpeggio![!6!A,,!5!E,!4!A,!3!^C!2!E!1!A]8 || !4!A,4 !3!C2 !2!D2 | %21
 [!4!A,!2!E]2 !2!F2 [!4!G,!1!G] !2!F !2!E2 | %22
 [!4!F,!1!A] !3!B, !3!C !2!D !5!E, !1!G !tenuto!!3!B, !tenuto!!3!C | %23
 [!5!D,!3!A,!2!F]2 !3!B,2 [!4!A,!3!C!2!E]2 !5!E, !3!B, | %24
 [!4!F,!3!A,!2!E]2 !2!D2 [!5!E,!4!A,!2!E]2 !4!^G,2 | %25
 [!6!A,,!4!A,!2!E!1!A]2 !1!B2 !1!c2 !tenuto![!3!B,!1!B] !tenuto!!1!A | %26
 [!4!F,!3!C!1!G]2 !2!E2 !1!A2 [!3!B,!2!D!1!G]2 | [!4!A,!3!C!2!^F]2 !2!E !2!F !2!E2 [!4!G,!3!B,]2 | %28
 [!4!^F,!3!A,]2 !2!E2 !2!_E2 !3!B,2 | [!5!E,!3!C!2!E]2 !4!A,2 !3!B,2 ([!4!^G,!1!B]2 | %30
 [!4!A,!2!E!1!c]2 [!2!^F!1!A]2 [!4!G,!2!D!1!B]2 [!2!E!1!G]2) | %31
 [!2!F!1!A]2 [!3!B,!2!D!1!G] !2!F [!3!C!2!E]2 !5!E, !3!B, | %32
 [!4!F,!3!A,]2 !5!D,2 [!5!E,!4!^G,]2 [!5!^C,!2!E]2 | %33
 [!5!D,!2!F]2 [!6!B,,!3!B,!2!D]2 [!6!A,,!3!C!2!F]2 !2!E2 | %34
 [!6!B,,!4!G,] !2!D !1!G2 [!5!C,!3!C] !2!E !1!A2 | %35
 [!5!D,!3!A,!2!F]2 [!3!B,!1!B]2 [!5!E,!3!C!2!E]2 !3!B,2 | %36
 [!4!F,!3!A,!2!E!1!A]2 !2!D !3!C [!4!G,!3!C!2!D!1!G]2 !3!B, !4!F, | %37
 [!5!E,!3!C!1!G]2 !5!C,2 [!4!F,!3!C!1!A]2 [!5!D,!2!D!1!B]2 | %38
 [!5!E,!4!^G,!3!B,]2 [!4!A,!3!C!2!E!1!A]2 [!8!E,,!3!B,]2 !1!^G2 | %39
 !arpeggio![!6!A,,!5!E,!4!A,!3!^C!2!E!1!A]8 |: [!10!C,,!4!G,!3!C!2!E]3 !1!G !1!A2 !1!G !4!G, | %41
 [!5!C,!3!A,!1!c]2 !4!G, !1!G [!3!C!2!E] !2!F [!3!B,!2!D] !4!G, | %42
 [!5!E,!3!C] !4!F, [!5!D,!3!B,]2 [!5!C,!3!C]2 !6!A,,2 | %43
 !3!B,2 [!6!^G,,!2!E]2 [!6!A,,!4!A,!3!C]2 !2!^F2 | %44
 [!6!B,,!4!G,!2!D!1!G]2 [!5!C,!4!G,!3!C!2!E]2 [!5!D,!3!A,!2!F]2 !3!B,2 | %45
 [!10!C,,!4!G,!3!C!2!E]2 !1!c2 !1!e2 [!2!D!1!B]2 | %46
 [!2!E!1!c]2 [!3!C!1!A]2 [!3!B,!2!D]2 [!5!^G,!1!^G] !2!E | %47
 !tenuto![!4!A,!2!F!1!A] !2!E !tenuto![!3!C!1!c] !2!D !tenuto![!4!G,!2!E!1!B] !2!D !3!B, !3!C | %48
 !tenuto![!4!F,!2!D!1!A] !3!C !3!A, !3!B, !tenuto![!5!E,!3!C!1!G] !3!B, !4!G, !3!A, | %49
 !tenuto![!5!D,!3!B,!2!F] !3!C !3!B, !1!G !tenuto![!8!E,,!3!C!2!E] !2!F !1!G !3!B, | %50
 [!7!F,,!3!A,!1!A] !2!E !2!D !3!C !2!D2 !1!B !1!A | %51
 [!8!E,,!3!B,!1!^G]3 [!3!C!1!A] [!3!B,!1!G]2 [!4!A,!1!c]2 | [!8!E,,!5!E,!4!^G,!3!B,!2!E!1!B]8 :: %53
"^IV" [!5!E,!1!B]2 !2!^G2 !3!E2 [!5!^C,!1!A]2 | %54
 [!5!D,!3!A,!2!F]2 [!6!B,,!3!B,!2!D]2 !6!^G,, !3!B, !2!E !2!D | %55
 [!6!A,,!3!C] !3!A, !2!D !3!C [!5!E,!3!B,] !4!A, !3!B, !4!^G, | %56
 [!4!F,!3!A,] !2!E !2!D !3!C [!4!G,!3!B,] !2!D !1!G !2!F | %57
 [!3!C!2!E!1!G] !5!C, !1!A !1!B !1!c !3!C [!2!D!1!B] !2!E | %58
 [!2!F!1!A] !4!F, [!4!G,!2!E!1!G] [!3!D!2!F] [!4!A,!3!C!2!E] !5!C, [!5!D,!3!B,!2!D] [!4!A,!3!C] | %59
 [!5!E,!4!^G,!3!B,]2 !8!E,,2 [!7!F,,!4!F,!3!A,]2 !2!D !3!C | %60
 [!6!G,,!4!G,!3!B,] !4!G,/ !3!A,/ !3!B,/ !3!C/ !2!D/ !2!E/ [!7!F,,!2!F]/ !1!G/ !2!E/ !2!F/ [!6!G,,!2!D]3/2 !3!C/4 !2!D/4 | %61
 !3!C2 !5!C,2 !10!C,,4 :| %62

